X: 15
T: Nancy under the Hill
R: jig
M: 12/8
L: 1/8
Z: 2010,2014 John Chambers <jc:trillian.mit.edu>
B: Longman ed. "Twenty Four Country Dances", p.32 London 1770
K: D
|: d3 f3 e2d cBA | B2c d2B A2G FED | d3  f3  e2d cBA | Bcd edc d3 D3 :|
|: f3 a3 agf g3  | f2d c2d e3  A3  | Bcd cde def efg | fed edc d3 D3 :|
% - - - - - - - - - - - - - - - - - - - - - - - - -
%%begintext align
%% Case down one Cu: and turn your Partner .|
%% man Cast down and the woman up Meet in the Middle and turn .|.
%% set Contrary Corners and Turn :|.
%% figure thro the Top meet and half Turn :|:
%% the same thro the third Cu: and half turn .|.
%% hands six round :|.
%% right and left with the Top :|:
%%endtext
% - - - - - - - - - - - - - - - - - - - - - - - - -
